X: 16842
T: Harvest Moon
R: reel
M: 4/4
K: Adorian
|:g|eAAE AcBA|GE3 GABd|eA3 cdeg|afge d2Bd|
eAAE AcBA|GE3 GABd|eaaf gedB|GABG A3:|
|:B|cBcd eg3|eaaf g2fg|ecAB cdeg|afge d3e|
cBcd eg3|eaaf gedB|c2BA GEDE|GABG A3:|

